X:1
T:6 Lieder, Op.10
T:Abschied
T:6. Abschied
T:Josephine Lang
T:6 Lieder, Op.10
T:Ernst Schulze
T:Creative Commons copyright waiver (CC0 1.0 Universal)
T:Creative Commons copyright waiver (CC0 1.0 Universal)
T:Creative Commons copyright waiver (CC0 1.0 Universal)
T:Creative Commons copyright waiver (CC0 1.0 Universal)
C:Josephine Lang
Z:Ernst Schulze
Z:Creative Commons copyright waiver (CC0 1.0 Universal)
L:1/8
Q:1/4=76
M:2/4
K:Db
V:1 treble nm="Singstimme\nVoice"
V:1
"^Adagio non troppo" z4 | z3/2 A/ A3/2 A/ | A2 z A | A z/ A/ G3/2 F/ | F2 E2 | z4 | G z E3/2 D/ | %7
w: |1. Ich lieb- te|dich, und|ach, ich muss ent-|sa- gen.||Nicht zürn' ich|
w: |2. Als I- de-|al sollst|du vor mir jetzt|schwe- ben!||Was ich ge-|
 C3 C | D3/2 D/ E3/2 _F/ | E2 z2 | z A A3/2 A/ | A2 z A | _c3/2 c/ B A | A2 G2 | z A B3/2 c/ | %15
w: dir, ich|zür- ne dem Ge-|schick.|Wirst du mich|je um|mei- ne Trä- nen|fra- gen,|so gieb nur|
w: dacht, ge-|fühlt, dir will ich's|weih'n;|du sollst die|Glut der|Phan- ta- sie be-|le- ben,|du sollst mein|
 d z/ A/ (3BG E | D3 E | (F4 | G/) z/ A B c | d c (3ed B | (!turn!D2 F3/2) E/ | D4 | z C D3/2 =D/ | %23
w: selbst die Ant- * wort|dir zu-|rück,|* so gieb nur|selbst die Ant- * wort|dir * zu-|rück.|Ich lieb- te|
w: Lied und mei- * ne|Mu- se|sein,|* du sollst mein|Lied und mei- * ne|Mu- * se|sein,|Lass mir die|
 E3 E | A =G F z/ E/ | E2 D2 | z D d3/2 B/ | =G2 z G | F F _F3/2 F/ | E4 | z C D3/2 =D/ | E3 E | %32
w: Dich, ich|will es nicht ver-|heh- len|war auch nur|Schmerz der|lan- gen Sehn- sucht|Ziel.|Ist Lie- be|nicht ein|
w: Lust, Dich|gei- stig zu ver-|eh- ren,|im sü- ssen|Traum dein|Bild- nis zu emp-|fah'n!|Lass mir den|Trost der|
 F =G A3/2 B/ | c2 c c | c d c3/2 B/ | (BA) GF | (E=D _D3/2) B,/ | A,4- | A,4 | z4 | z A A3/2 A/ | %41
w: An- teil schö- ner|See- len, und|loh- net nicht Ge-|fühl * sich *|durch * * Ge-|fühl!|||Ich lie- be|
w: stil- len Weh- muts-|zäh- ren, der|Gei- ster- nä- he|wun- * der- *|sü- * * ssen|Wahn.|||So leb' denn|
 A2 z A | A A _G3/2 F/ | F2 E z | z4 | G z E3/2 D/ | C3 C | D3/2 D/ E3/2 _F/ | E4 | %49
w: Dich, und|kann Dich nicht ver-|ges- sen!||doch schwei- gen|will ich|mit ver- halt- nem|Schmerz,|
w: wohl! nie|wird dein Bild mich|flie- hen,||wenn auch dein|Herz das|mei- ne bald ver-|gisst;|
 z3/2 A/ A3/2 A/ | A3 A | _c3/2 c/ B3/2 A/ | A2 G2 | z A B =c | d3/2 A/ (3BG E | D2 E2 | (F4 | %57
w: will al- len|Gram in|ei- ne Trä- ne|pres- sen,|in ei- nen|Seuf- zer mein * zer-|drück- tes|Herz,|
w: ich ha- be|Dir und|dem Ge- schick ver-|zie- hen,|und bin be-|glückt, wenn du * nur|glück- lich|bist,|
 G) z/ A/ B c | d c{/c} (3ed B | !turn!D2 F3/2 E/ | D4 | z4 |] %62
w: _ in ei- nen|Seuf- zer mein * zer-|drück- * tes|Herz.||
w: _ und bin be-|glückt, wenn du * nur|glück- * lich|bist.||

